X:1
T:St. Anatolius (Dykes), 76.76.88
T:St. Anatolius (Dykes), 76.76.88
T:John Bacchus Dykes, 1862
T:Public Domain Courtesy of the Cyber Hymnal™
C:John Bacchus Dykes, 1862
Z:Public Domain
Z:Courtesy of the Cyber Hymnal™
%%score ( 1 2 ) 3
L:1/8
M:4/4
K:G
V:1 treble 
V:2 treble 
V:3 bass 
V:1
 [DG]2 | [DF]2 [DG]2 [Dc]2 [DB]2 | [GB]2 [FA]6 | [DB]2 [DE]2 [CE]2 [DF]2 | ([DG]A) [DG]4- [DG]2 | %5
 [Fd]2 [Gd]2 [GB]2 [Gc]2 | [=Fd]2 [Ee]2 G2 [Gd]2 | [DB]2 [^DB]2 [DA]2 [EG]2 | [EA]2 [^DB]4- [DB]2 | %9
 [DB]2 [DB]2 [DB]2 [DA]2- | [DA][DG] [DF]2 ([DG]E) [FA]2 | G2 [=FB]2 [Fd]2 [Ec]2 | %12
 ([DE]C) [B,G]4 [DA]2 | C2 [B,G]4 |] %14
V:2
 x2 | x8 | x8 | x8 | x8 | x8 | x8 | x8 | x8 | x8 | x8 | x8 | x8 | C2 x4 |] %14
V:3
 [G,B,]2 | [A,C]2 [G,B,]2 [F,A,]2 [G,B,]2 | [D,D]2 [D,D]6 | [B,,G,]2 [C,G,]2 [A,,A,]2 [D,A,]2 | %4
 ([D,B,]C) [G,B,]4- [G,B,]2 | [A,C]2 [G,B,]2 [=F,D]2 [E,G,]2 | [D,B,]2 [C,C]2 E,2 [D,F,]2 | %7
 [G,B,]2 [B,,B,]2 [B,,B,]2 [E,B,]2 | ([C,A,]E,) [B,,F,]4- [B,,F,]2 | %9
 [G,,B,]2 [G,B,]2 [G,B,]2 [F,C]2- | [F,C][G,B,] [D,A,]2 [D,B,]2 [D,C]2 | %11
 [G,B,]2 [G,D]2 [G,,B,]2 [C,G,]2 | [C,A,]2 [D,B,]2 G,2 [D,F,]2- | [D,F,]2 [G,,G,]4 |] %14

